X:1
T:Helas de vous me doy complaindre
T:Mattheus Pipelare
T:Helas de vous me doy complaindre
C:Mattheus Pipelare
%%score [ 1 2 3 ]
L:1/8
Q:1/4=160
M:4/2
K:F
V:1 treble nm="Soprano" snm="S"
V:2 treble-8 nm="Tenor" snm="T"
V:3 bass nm="Bass" snm="B"
V:1
 z16 | z16 | F16 | E8 E8 | D4 A6 B2 c2 d2 | e2 d2 c2 B2 c8 | d12 c2 B2 | A12 B4 | c8 d8 | %9
w: ||He-|las de|_ vous, _ _ _|_ _ _ _ _|he- * *|las _|_ de|
 G8 G4 A2 B2 | c8 c2 B2 A2 G2 | F4 G2 A2 B4 A4- | A4 G8 ^F4 | G16 | z8 G8 | A8 A8 | B8 B8 | %17
w: vous me _ _|doy com- * * *|* * * * plain-||dre,|quant|vous a-|vez vou-|
 c8 d8- | d4 c4 c8- | c8 =B8 | c6 B2 G4 A4- | A2 G2 F2 E2 F8 | E16 | E8 E8 | F8 G6 F2 | %25
w: lu con-|* * strain-||||dre|mon cueur|et moy _|
 E2 D2 A8 G4- | G4 F4 E8 | D8 F8- | F4 G4 A8- | A4 B4 c8 | d12 c4 | c16 | F12 E2 D2 | E12 C4 | %34
w: _ _ vous tant|_ _ ay-|mer, mon|_ _ cueur|_ _ et|moy _|vous|tant _ _|ay- *|
 C16 |] %35
w: mer.|
V:2
 z16 | z16 | z16 | z16 | f16 | e8 e8 | d16 | f16 | f8 f8 | e16 | e8 e8 | d12 c4- | c4 B4 A8 | G16 | %14
w: ||||He-|las de|vous|me|doy com-|plain-|dre, me|doy _|_ com- plain-|dre,|
 A8 B8 | c16 | d8 d8 | c8 f8- | f4 e4 d4 c4 | d8 d8 | c8 c8 | c8 d8 | c16 | z8 c8 | d8 e8 | %25
w: quant _|vous|_ a-|* vez|_ _ _ _|* vou-|lu con-|strain- *|dre|mon|cueur et|
 f6 g2 f4 e4- | e4 d8 c4 | d12 c4 | d8 c8 | A16 | B16 | A16- | A16- | A16- | A16 |] %35
w: moy _ _ vous|_ _ _|tant _|ay- *|||mer.|_|||
V:3
 F,16 | E,8 E,8 | D,4 A,6 B,2 C2 D2 | E2 D2 C2 B,2 C8 | D16 | A,16 | B,12 A,2 G,2 | F,12 G,4 | %8
w: He-|las de|_ vous, _ _ _|_ _ _ _ _|he-|las|de _ _|vous _|
 A,8 B,8 | C8 C2 B,2 A,2 G,2 | A,16 | B,6 A,2 G,4 A,4 | F,4 G,4 D,8 | z8 D8 | C4 B,2 A,2 G,8 | %15
w: _ me|doy com- * * *|plain-||* * dre,|quant|vous _ _ _|
 F,8 A,8 | G,16 | A,8 B,8 | A,4 G,2 F,2 C8 | G,16 | A,6 G,2 E,4 F,4- | F,2 E,2 D,2 C,2 B,,8 | %22
w: _ a-|vez|vou- lu|_ _ _ con-|strain-|||
 C,16- | C,16 | z8 C,8 | D,6 E,2 F,4 C,4- | C,4 D,4 A,4 A,4 | D,16- | D,8 z8 | F,12 E,4 | %30
w: dre|_|mon|cueur _ et moy|_ vous tant ay-|mer,|_|vous _|
 D,4 C,4 B,,8 | F,12 E,4 | D,12 C,2 B,,2 | A,,16- | A,,16 |] %35
w: _ _ _|tant _|ay- * *|mer.|_|

